<?xml version="1.0" encoding="UTF-8"?>
<map version="1.10" tiledversion="1.11.2" orientation="orthogonal" renderorder="right-down" width="2" height="2" tilewidth="16" tileheight="16" infinite="0" nextlayerid="6" nextobjectid="1">
 <tileset firstgid="1" name="spring_ClothingBin_desat" tilewidth="16" tileheight="16" tilecount="4" columns="2">
  <image source="spring_ClothingBin_desat.png" width="32" height="32"/>
 </tileset>
 <layer id="2" name="Buildings" width="2" height="2">
  <data encoding="csv">
0,0,
3,4
</data>
 </layer>
 <layer id="4" name="Buildings2" width="2" height="2">
  <data encoding="csv">
1,2,
0,0
</data>
 </layer>
</map>
